X: 20036
T: Jimmy Duffy's
R: barndance
M: 4/4
K: Gmajor
|:g>a|b2 b>a g2 g>e|d>BG>A B2 B>A|G>AB>c d>ef>g|a>g (3gfe d3 f|
g2 b>a g2 g>e|d>BG>A B2 (3cBA|Ggfe (3ded (3cBA|(3GAG F2 G2:|
|:(3Bcd|e2 e2 d2 B2|G>AG>F G3 D|G>AB>c d>ef>g|a>gf>e d2 (3Bcd|
e>fg>e dedB|G>AG>F G3 D|G>AB>c d>ef>g|a2 d2 g2:|
|:g>a|b2 ba g2 g>e|d>BG>A B2 B>A|G>AB>c d>ef>g|a>g (3gfe d3 f|
g2 b>a g2 g>e|d>BG>A B2 (3cBA|Ggfe (3dcB (3AGF|(3GAG F2 G2:|
|:(3Bcd|e2 e2 d2 B2|G>AG>F G3 D|G>AB>c d>ef>g|a>gf>e d2 (3Bcd|
1 e>fg>e d>ed>B|G>AG>F G3 D|G>AB>c d>ef>g|a2 d2 g2:|
2 g2 b>a g2 g>e|d>BG>A B2 (3cBA|Ggfe (3dcB (3AGF|(3GAG F2 G2||
|:g>a|b2 b>a g2 g>e|d>BG>A B2 B>A|G>AB>c d>ef>g|a>g (3gfe d3 f|
g2 b>a g2 g>e|d>BG>A B2 (3cBA|G>gf>e d>cB>A|G2 F2 G2:|
|:(3Bcd|e2 e2 d2 B2|G>AG>F G3 D|G>AB>c d>ef>g|a>gf>e d2 (3Bcd|
e>fg>e d>ed>B|G>AG>F G3 D|G>AB>c d>ef>g|a2 d2 g2||

